X:1
T:Waltz Number 2
T:Waltz Number 2
T:from Suite No. 2 for Jazz Orchestra
T:Dmitry Shostakovich
T:arr. for Flutes D. Thimsen
C:Dmitry Shastokovich
%%score 1 2 { ( 3 6 ) | ( 4 5 ) }
L:1/8
Q:1/4=170
M:3/4
K:Eb
V:1 treble nm="Flute" snm="Fl."
V:2 treble transpose=-5 nm="Alto Flute" snm="Alt.Fl."
V:3 bass nm="Piano" snm="Pno."
V:6 bass 
V:4 bass 
V:5 bass 
V:1
 z6 | z6 | z6 | z6 | z6 | z6 | z6 | z6 | z6 | z6 | z6 | z6 | z6 | z6 | z6 | z6 | z6 | z6 | z6 | %19
 z6 |!mf! e6 | (d4 c2 | B4 A2 | !breath!F6) | (d6 | c4 B2 | !breath!G6) | z2!mp! .e2 .f2 | %28
 .g2 (gf ga) | .f2 (fe fg) | .e2 z2 !breath!.g2 | z6 | z6 | z6 | z6 | z2 .c2 .d2 | .e2 (ed ef) | %37
 .d2 (dc de) | c6- | c6- |!<(! c6- | !breath!c6!<)! |"^A" (g6 | e4 d2 | c6-) | !breath!c2 (c2 d2) | %46
 (e2 c2 e2) | (g4 a2) | (gfedcA | !breath!F6) | (f6 | d4 c2 | =B6- | !breath!B2) (G2 =B2) | %54
 (d2 =B2 d2) | (f2 g2 a2) | (^f6 | !breath!g6) | e'6 | (d'4 c'2) | (b4 a2) | !breath!f6 | d'6 | %63
 (c'4 b2) | !breath!b6 | z6 | z6 | z6 | z6 | z2 .e2 .f2 | .g2 (gf ga) | .f2 (fe fg) | %72
 .e2 z2 !breath!.g2 | z6 | z6 | z6 |!<(! c6- | c2 z2!<)!!f! B2 |"^B" e6 | !breath!e6 | (e2 d2 c2) | %81
 (B2 G2 B2) | d6 | !breath!d6 | (c2 B2 G2) | (E2 F2 G2) | c6 | !breath!B6 | (B2 A2 G2) | %89
 (D2 E2 F2) | (G4 B2) | (F4 B2) |!<(! (G4 B2) | (e4 f2)!<)! |!ff! g6 | !breath!g6 | (g2 f2 e2) | %97
 (d2 B2 d2) | f6 | !breath!f6 | (f2 e2 d2) | (c2 G2 B2) | e6 | e6 | !breath!e6 | (f2 e2 f2) | %106
 g4 e2 | (B2 c2 d2) | .e2!>(! !tenuto!f'2 !tenuto!e'2 | !tenuto!_d'2 !tenuto!c'2 !tenuto!=b2!>)! || %110
[K:Ab]!mf!"^C" (c'4 e2- | e) !breath!z (=d3 e) | (c'4 e2- | e) !breath!z (!courtesy!_d'2 c'2) | %114
 (c'4 b2) | (=a4 b2) | (f'4 e'2) | (d'2 c'2 =b2) | (c'4 (e2 | e)) !breath!z (=d3 e) | (c'4 e2- | %121
 e) z (f3 g) | (a4 b2) | !breath!c'4 c'2 | (=d'2 c'2 d'2) | (e'4 d'2) | (c'=b) .c'.a .e.=d | z6 | %128
 (c'=b) .c'.a .e!breath!.=d | z .a .g.a .b.c' | (g4 b2) | (=a4 b2) | (f'4 e'2) | %133
 (d'e') (d'c') (c'=b) | (c'4 !breath!e2) | z .e .=d.e .f.g | (c'4 !breath!e2) | z ._d .c.d .e.=e | %138
 (a4 b2) | c'4 c'2 | (=d'2 c'2 d'2) | %141
"^un poco ritenuto"[Q:1/4=165]!<(! .e' (f'[Q:1/4=160]e'=d'[Q:1/4=155]e'f')!<)! | %142
!f![Q:1/4=150] (g'4-[Q:1/4=145] g'/f'/e'/=d'/ |!mf!"^a tempo"[Q:1/4=155] !breath!c'6) | %144
 z2 (e3 =d) | c6 | z2 (g3 =d) ||[K:Eb] c6- | c6- | c6- | !breath!c6 |"^D" z6 | z6 | z2 (c2 d2 | %154
 =B2) (c2 d2) | z6 | z2 (G2 !breath!c2) | z6 | z6 | z2 (=B2 c2 | d2) (e2 =e2) | z6 | z6 | %163
 z2 (e2 d2 | f2) (a2 f2) |!f! z2!>(! (=A2 c2 | =B2) (_A2 G2)!>)! |!mf! (e4 g2) | (e2 d2 c2) | %169
 (B4 A2) | !breath!F6 | (d4 (ef)) | (dc) (cB) (Bc) | !breath!G6 | z2!mp! .e2 .f2 | .g2 (gf ga) | %176
 .f2 (fe fg) | .e2 z2 !breath!.g2 | z6 | z6 | z6 | z6 | z2 .c2 .d2 | (ed cd ef) | (dc =Bc de) | %185
 c6- | c6- |!<(! c6- | !breath!c6!<)! |"^E" z2!mp! (ed e) z | z2 (ed e) z | z2 (ed e) z | %192
 z2 (ed e) z | z2 (ed e) z | z2 (ed e) z | z2 (d^c d) z | z2 (d^c d) z | z2!<(! (=B2 c) z | %198
 z2 (d2 e) z | z2 (f2 ^f) z | z2 (g2 f) z | z2 (f2 e) z | z2 (g2 a) z | z2 (a2 c') z | %204
 z2 (=b2 d') z!<)! |!f! e'6 | (d'4 c'2) | (b4 a2) | f6 | (d'e' d'c' ba) | !breath!d'6 | %211
 z!mp! (e' f'e' d'e') | z2 .e2 .f2 | .g2 (gf ga) | .f2 (fe fg) | .e2 z2 !breath!.g2 | z2 .c2 .d2 | %217
 .e2 .e2 z2 | .d2 .d2 z2 |!<(! G4 .A2 | z2 .c2 .d2!<)! |!f! .e2!<(! (ed ef) | .d2 (dc de) | %223
 .c2 z2 .g2!<)! |!ff! .c'2 z4 |] %225
V:2
 z6 | z6 | z6 | z6 |!mp! c6 | (A4 G2 | F6- | !breath!F2) (F2 G2) | (A2 F2 A2) | (c4 _d2) | (c6 | %11
 !breath!B6) | B6 | (G4 F2 | =E6- | !breath!E2) (C2 =E2) | (G2 =E2 G2) |!<(! (B2 c2 _d2) | (=B6 | %19
 !breath!c6)!<)! |!mf! f6 | (c6 | B6- | !breath!B6) | (B6 | G6 | !breath!c6) | z2!mp! .f2 .g2 | %28
 .a2 .a2 z2 | .g2 .g2 z2 | .f2 z2 !breath!.a2 | z2 .A2 .B2 | .c2 (cB c_d) | .B2 (BA Bc) | %34
 .A2 z2 !breath!.c2 | z2 .A2 .B2 | .c2 .c2 z2 | .=e2 .B2 (c2 | A6-) | A6- |!<(! A6- | %41
 !breath!A6!<)! | c6 | (A4 G2 | F6- | !breath!F2) (F2 G2) | (A2 F2 A2) | (c4 _d2) | (c6 | %49
 !breath!B6) | B6 | (G4 F2 | =E6- | !breath!E2) (C2 =E2) | (G2 =E2 G2) | (B2 c2 _d2) | (=B6 | %57
 !breath!c6) | a6 | c'4 c'2 | g4 g2 | !breath!g6 | b6 | b6 | !breath!c'6 | z2!mp! .A2 .B2 | %66
 .c2 (cB c_d) | .B2 (BA Bc) | .A2 z2 !breath!.c2 | z2 .f2 .g2 | .a2 .a2 z2 | .g2 .g2 z2 | %72
 .f2 z2 !breath!.a2 |!mf! z2 .F2 .G2 | .A2 (AG AB) | .G2 (GF GA) |!<(! F6- | %77
 !breath!F2 z2!<)!!f! _d2 | e6 | !breath!e6 | (e4 _d2) | (c2 A2 c2) | e6 | !breath!e6 | %84
 (_d2 c2 A2) | (F2 G2 A2) | =A6 | !breath!=A6 | (c2 B2 A2) | (G2 F2 G2) | (A4 e2) | (G4 e2) | %92
!<(! (A4 c2) | (e4 _d2)!<)! |!ff! e6 | !breath!a6 | (a2 g2 f2) | (e2 c2 e2) |!ff! e6 | !breath!g6 | %100
 (g2 f2 e2) | (_d2 A2 c2) | e6 | e6 | !breath!f6 | (_d2 c2 d2) | e4 c2 | (G2 A2 B2) | %108
 .c2!>(! !tenuto!b2 !tenuto!a2 | !tenuto!_g2 !tenuto!f2 !tenuto!=e2!>)! ||[K:Ab]!mf! (a4 f2- | %111
 f) !breath!z (=e3 f) | (a4 f2- | f) !breath!z (b2 a2) | (c'4 !courtesy!_g2) | (f4 _g2) | c'4 c'2 | %117
 (b2 a2 g2) | (a4 f2- | f) z (=e3 f) | (a4 f2- | f) z (_g3 a) | (b4 c'2) | !breath!b4 b2 | %124
 (b2 a2 b2) | (a4 c'2) | (a4 f2) | (af) ._g.a .b.c' | (a4 !breath!f2) | z .d .c.d .e.f | %130
 (Ac) .e.!courtesy!_g .b.a | (f4 !courtesy!_g2) | (Ac) .e.!courtesy!_g .b.a | (b2 a2 g2) | %134
 (f=e) .f.b .a!breath!.!courtesy!_g | z6 | (f=e) .f.b .a!breath!.!courtesy!_g | z ._g .f.g .a.=a | %138
 (b=a) .b.!courtesy!_g .e.c' | (d'4 b2) | (b2 a2 b2) |!<(! !breath!.c' z z2 z2!<)! |!f! b4 b2 | %143
!mf! !breath!f6 | z2 (a3 g) | f6 | z2 (a3 g) ||[K:Eb] f6- | f6- | f6- | !breath!f6 | z2 (A2 B2 | %152
 c2) (_d2 B2) | z6 | z6 | z2 (c2 _d2 | c2) (A2 B2) | z2 (G2 A2 | B2) (=A2 B2) | z6 | z6 | %161
 z2 (B2 =B2 | c2) (G2 A2) | z6 | z6 |!f! z2!>(! (A2 =B2 | c2) G4!>)! |!mf! (c4 e2) | (c2 B2 A2) | %169
 !breath!G6 | (F2 GA Bc) | (B4 _d2) | (B2 G2) G2 | A6 | z6 | z6 | z6 | z6 | z2 .A2 .B2 | %179
 .c2 (cB c_d) | .B2 (BA Bc) |!<(! .A2 z2 .c2!<)! | z2 .A2 .B2 | .c2 B4 | ._d2 c4 | A6- | A6- | %187
!<(! A6- | !breath!A6!<)! | z2!mp! (f=e f) z | z2 (c=B c) z | z2 (f=e f) z | z2 (c=B c) z | %193
 z2 (f=e f) z | z2 (c=B c) z | z2 (_dc d) z | z2 (_dc d) z | z2 (_dc d) z | z2 (=e^d e) z | %199
 z2 (_dc d) z | z2 (=e^d e) z | z2!<(! (c=B c) z | z2 (=e^d e) z | z2 (=b^a b) z | %204
 z2 (g2 =e) z!<)! |!f! a6 | (g4 f2) | b6 | (g2- ga bc') | !breath!e'6 | (fe _dG Be) | c'6!mp! | %212
 z2 .f2 .g2 | .a2 .a2 z2 | .g2 .g2 z2 | .f2 z2 !breath!.c2 | z2!mf! .A2 .B2 | .c2 (cB c_d) | %218
 .B2 (BA Bc) |!<(! F4 !breath!.A2 | z2 .A2 .B2!<)! |!f! .c2!<(! .c2 z2 | .=e2 .e2 z2 | %223
 .A2 z2 .=e2!<)! |!ff! .f2 z4 |] %225
V:3
!p! z2 [G,CE]2 [G,CE]2 | z2 [G,CE]2 [G,CE]2 | z2 [G,CE]2 [G,CE]2 | z2 [G,CE]2 [G,CE]2 | %4
 z2!p! [E,G,C]2 [E,G,C]2 | z2 [E,G,C]2 [E,G,C]2 | z2 [E,G,C]2 [E,G,C]2 | z2 [E,G,C]2 [E,G,C]2 | %8
 z2 [E,G,C]2 [E,G,C]2 | z2 [E,G,C]2 [E,G,C]2 | z2 [A,C]2 [A,C]2 | z2 [F,A,]2 [F,A,]2 | %12
 z2 [F,A,]2 [F,G,]2 | z2 [F,A,]2 [F,A,]2 | z2 [F,G,]2 [F,G,]2 | z2 [D,F,]2 [D,F,]2 | %16
 z2 [F,G,]2 [F,G,]2 |!<(! =B,2 B,2 B,2 | z2 [E,G,C]2 [E,G,C]2 | z2 [E,G,C]2 [E,G,C]2!<)! | %20
[K:treble]!mf! [Gc]6 | ([EG]6 | F6 | F6) | ([FB]6 | [DA]6 | G6) | z6 | .[CE]2 .[CEG]2 z2 | %29
 .[CF]2 .[CFA]2 z2 | .[CE]2 .[CEG]2 z2 | z2 .C2 .D2 | .E2 .E2 z2 | .D2 .D2 z2 | .C2 z2 .E2 | %35
 z2 .[CE]2 .D2 | z2 .[CE]2 .[G,CE]2 | z2 .[G,D]2 [F,G,D]2 | z2 [G,CE]2 [G,CE]2 | %39
 z2 [G,CE]2 [G,CE]2 |!<(! z2 [G,CE]2 [G,CE]2 | z2 [G,CE]2 [G,CE]2!<)! |!mf! z2 [G,CE]2 [G,CE]2 | %43
 z2 [G,C]2 [G,C]2 | z2 [G,CE]2 [G,CE]2 | z2 [G,CE]2 [G,CE]2 | z2 [G,CE]2 [G,CE]2 | %47
 z2 [G,C]2 [G,C]2 | z2 [A,C]2 [A,C]2 | z2 z/ d'/c'/a/ g/f/d/e/ | f6 | z6 | z2 [DF]2 [DF]2 | %53
 z2 [DF]2 [DF]2 | z2 [DF]2 [DF]2 | =B2 B2 d2 | z2 [E,G,C]2 [E,G,C]2 | z2 [E,G,C]2 [E,G,C]2 | g6 | %59
 g4 g2 | B4 A2 | [Fd]6 | d6 | c4 B2 | [Be]3 E DE | z2!mp! .C2 .D2 | .E2 .E2 z2 | .D2 .D2 z2 | %68
 .C2 z2 .E2 | .C2 z2 .C2 | .E2 .[EG]2 z2 | .F2 .[FA]2 z2 | .E2 .G2 z2 |!mf! z2 .C2 .=B,2 | %74
 .C2 .[CE]2 z2 | .=B,2 .[B,D]2 z2 |!<(! [EGc]6- | [EGc]2 z2!<)!!mf! [A,B,D]2 | G6 | G6 | G6 | G6 | %82
 F6 | F6 | G6 | G6 | G6 | G6 | F6 | F6 | E6 | B6 |!<(! e6 | G4 B2!<)! |!mf! [Ge]6 | [GB]6 | [Ge]6 | %97
 [GB]6 | [Fd]6 | [FB]6 | [Fd]6 | [EB]6 | [EG]6 | [EG]6 | [EA]6 | [A_c]4 [_CA]2 | [EB]6 | [DA]6 | %108
 [G,E]2 z2 z2 | [G,_DE]2 A,2 z2 ||[K:Ab]!mf! a4 z2 | a4 z2 | a4 z2 | z2 a2 a2 | e4 g2 | g4 g2 | %116
 b4 b2 | g2 g2 g2 | e4 z2 | a4 z2 | a4 z2 | a4 z2 | d4 d2 | a4 a2 | b2 a2 b2 | [gb]4 d2 | a4 z2 | %127
 a4 z2 | a4 z2 | a4 z2 | c'4 g2 | _g4 =g2 | b4 b2 | e4 g2 | a4 z2 | c'4 z2 | e4 z2 | c'4 z2 | %138
 d'4 z2 | f4 a2 | b2 a2 b2 |!<(! .b z z2 z2!<)! |!f! [=be']2 [fb]2 =d2 | z2!mf! [CE]2 [CE]2 | %144
 z2 [G=B]4 | z2 [CE]2 [CE]2 | z2 [G=B]4 ||[K:Eb] z2 [G,CE]2 [G,CE]2 | z2 [G,CE]2 [G,CE]2 | %149
 z2 [G,CE]2 [G,CE]2 | z2 [G,CE]2 [G,CE]2 | z2"_cresc." C2 [CD]2 | [CE]2 [CE]2 [DF]2 | %153
 z2 [EG]2 [EG]2 | [EG]2 [EA]2 [EG]2 | z2 [CE]2 [CE]2 | z2 C2 C2 | z2 [A,C]2 [A,C]2 | %158
 [A,C]2 [A,C]2 [A,C]2 | z2 A,2 A,2 | [A,=B,]2 [A,B,]2 [A,B,]2 | z2 [A,=B,]2 [A,B,]2 | %162
 [G,=B,]2 [G,B,]2 [G,B,]2 | [G,=B,]2 [G,B,]2 [A,B,]2 | [G,=B,]2 [B,D]2 [F,B,]2 |!f! z2!>(! =A2 c2 | %166
 =B2 A2 [FG]2!>)! | z6 | e2 d2 c2 | z2 [A,C]2 [A,C]2 | z2 [A,C]2 [A,B,]2 | z2 [B,D]2 [A,C]2 | %172
 z2 [F,A,C]2 [A,B,]2 | z2 [G,B,]2 [G,=B,]2 | z2!mp! .c2 .d2 | .[Ee]2 .[EGe]2 z2 | %176
 .[Fd]2 .[FAd]2 z2 | .[Ec]2 .G2 .e2 | .A,2 .C2 .D2 | .E2 .E2 z2 | .D2 .D2 z2 |!<(! .C2 z2 .e2!<)! | %182
 z2 .C2 .D2 | [EG]D CB, A,G, | [A,F]G, A,B, CD | [Gc]6- | [Gc]6- |!<(! [Gc]6- | [Gc]6!<)! | %189
!mf! G6 | z3/2 [G,CE]/ [G,CE]2 [G,CE]2 | z2 [G,CE]2 [G,CE]2 | z3/2 [G,CE]/ [G,CE]2 [G,CE]2 | %193
 z2 [G,CE]2 [G,CE]2 | z3/2 [G,CE]/ [G,CE]2 [G,CE]2 | z2 [A,CD]2 [A,CD]2 | %196
 z3/2 [A,D]/ [A,D]2 [A,C]2 | z2 [A,=B,]2 [A,C]2 | z3/2 [A,=B,D]/ [A,B,D]2 [A,B,E]2 | %199
 z2 [A,=B,F]2 [A,B,^F]2 | z3/2 [G,=B,G]/ [G,B,G]2 [G,B,F]2 | z2 [G,=B,F]2 [G,B,E]2 | %202
 z3/2 [=B,DF]/ [B,DG]2 [B,DFA]2 | z2 [C^FA]2 [EFc]2 | z3/2 [=FG]/ [DA]2 [F=Bd]2 |!mf! G6 | G4 G2 | %207
 D6 | D6 | F6 | D6 | G6!mp! | .c2 z2 z2 | .E2 .[EG]2 z2 | .F2 .[FA]2 z2 | z2 z2 .e2 | %216
 .A,2!mf! .C2 .D2 | .E2 .E2 z2 | .D2 .D2 z2 |!<(! G,4 .A,2 | z6!<)! |!f! .c2!<(! c4 | F2 F4 | %223
 .E2 z2 .f2!<)! |!ff! .[eg]2 z4 |] %225
V:4
!ped! C,6!ped-up! |!ped! G,,6!ped-up! |!ped! C,6!ped-up! |!ped! G,,6!ped-up! |!ped! C,6!ped-up! | %5
!ped! G,,6!ped-up! |!ped! C,6!ped-up! |!ped! G,,6!ped-up! |!ped! C,6!ped-up! |!ped! G,,6!ped-up! | %10
!ped! D,6!ped-up! |!ped! G,,6!ped-up! |!ped! D,6!ped-up! |!ped! G,,6!ped-up! |!ped! D,6!ped-up! | %15
!ped! G,,6!ped-up! |!ped! =B,,6!ped-up! | [G,,G,]2 [F,,F,]2 [D,,D,]2 |!ped! C,,6!ped-up! | %19
!ped! G,,6!ped-up! |!ped! z2 [E,G,]2 [E,G,]2!ped-up! |!ped! z2 [E,G,]2 [E,G,]2!ped-up! | %22
!ped! F,6!ped-up! |!ped! D,6!ped-up! |!ped! B,,6!ped-up! |!ped! z2 z2 [D,A,]2!ped-up! | %26
!ped! E,6!ped-up! | .[C,A,C]2 z2 z2 | .G,2 z2 z2 | .A,2 z2 z2 | .G,2 z2 z2 | .[A,,F,A,]2 z2 z2 | %32
 .[G,,E,]2 .[E,G,]2 z2 | .[A,,F,]2 .[F,A,]2 z2 | .[G,,E,]2 .G,2 z2 | [A,,A,]4 z2 | [G,,G,]4 z2 | %37
 [G,,F,]4 z2 |!ped! [C,,C,]6!ped-up! |!ped! [G,,,G,,]6!ped-up! |!ped! [C,,C,]6!ped-up! | %41
!ped! [G,,,G,,]6!ped-up! |!mf!!ped! C,,6!ped-up! |!ped! G,,6!ped-up! | %44
!ped! C,G,, =A,,=B,, C,D,!ped-up! |!ped! E,=B,, C,D, E,F,!ped-up! |!ped! G,F, E,D, C,D,!ped-up! | %47
!ped! E,F, G,A, F,E,!ped-up! |!ped! D,6!ped-up! |!ped! z2 [F,=B,]2 [F,B,]2!ped-up! | %50
 z2 [F,A,]2 [F,G,]2 | z2 [F,A,]2 [F,G,]2 |!ped! =B,,F,, G,,=A,, B,,C,!ped-up! | %53
!ped! D,=B,, C,D, C,B,,!ped-up! |!ped! A,,G,, A,,=A,, =B,,C,!ped-up! | %55
!ped! D,A, G,F, D,G,,!ped-up! |!ped! C,,6!ped-up! |!ped! G,,6!ped-up! | %58
!ped! z2 [E,G,C]2 [E,G,C]2!ped-up! |!ped! z2 [E,G,C]2 [E,G,C]2!ped-up! | %60
!ped! z2 [A,C]B, [D,C]B,!ped-up! |!ped! z2 [A,C]2 [A,B,]2!ped-up! |!ped! z2 [B,D]2 [A,C]2!ped-up! | %63
!ped! z2 [A,C]2 [D,A,]2!ped-up! |!ped! z2 [G,B,]2 [G,=B,]2!ped-up! | .[C,A,C]2 z2 z2 | %66
 .[G,,E,]2 .[E,G,]2 z2 | .[A,,F,]2 .[F,A,]2 z2 | .[G,,E,]2 .G,2 z2 | .[A,,F,A,]2 z2 A,2 | %70
 .G,2 z2 z2 | .A,2 z2 z2 | .G,2 z2 z2 | !tenuto![A,,F,]4 z2 | !tenuto![G,,G,]4 z2 | %75
 !tenuto![G,,F,]4 z2 | C,2 G,,2 E,,2 | [C,,C,]2 z2 B,,2 |!ped! [E,,E,]6!ped-up! | %79
!ped! [B,,,B,,]6!ped-up! |!ped! [E,,E,]6!ped-up! |!ped! [B,,,B,,]6!ped-up! | %82
!ped! [F,,F,]6!ped-up! |!ped! [B,,,B,,]6!ped-up! |!ped! [E,,E,]6!ped-up! | %85
!ped! [B,,,B,,]6!ped-up! |!ped! [C,,C,]6!ped-up! |!ped! [C,,C,]6!ped-up! | %88
!ped! [F,,F,]2 [A,C]2 [C,,C,]2!ped-up! |!ped! z2 [C,F,]2 [C,F,]2!ped-up! |!ped! [E,,E,]6!ped-up! | %91
!ped! [B,,,B,,]6!ped-up! |!ped! [E,,E,]D, [D,,D,]C, [C,,C,]B,,!ped-up! | %93
!ped! [B,,,B,,]G,, [G,,,G,,]F,, [F,,,F,,]E,,!ped-up! |!ped! z2 [B,,E,G,]2 [B,,E,G,]2!ped-up! | %95
!ped! z2 [B,,E,G,]2 [B,,E,G,]2!ped-up! |!ped! z2 [B,,E,G,]2 [B,,E,G,]2!ped-up! | %97
!ped! z2 [B,,E,G,]2 [B,,E,G,]2!ped-up! |!ped! z2 [F,A,B,]2 [F,A,B,]2!ped-up! | %99
!ped! z2 [F,A,B,]2 [F,A,B,]2!ped-up! |!ped! z2 [D,F,A,]2 [D,F,A,]2!ped-up! | %101
!ped! z2 [E,G,B,]2 [G,B,E]2!ped-up! |!ped! z2 [E,G,B,]2 [E,G,B,]2!ped-up! | %103
!ped! z2 [E,G,B,]2 [E,G,B,]2!ped-up! |!ped! z2 [E,A,C]2 [E,A,C]2!ped-up! | %105
!ped! z2 [A,B,]2 [_C,A,]2!ped-up! |!ped! B,,F, G,A, B,C!ped-up! | B,C B,A, F,B,, | %108
 .[E,,E,]2 !tenuto!C,2 !tenuto!_D,2 | E,2 F,2 G,2 ||[K:Ab]!ped! z2 [CE]=D [CE] z!ped-up! | %111
!ped! z2 [CE]2 [CE]2!ped-up! |!ped! z2 [CE]=D [CE] z!ped-up! |!ped! z2 [CE]2 [CE]2!ped-up! | %114
!ped! z2 [DE]C [DE]2!ped-up! |!ped! z2 [DE]2 [DE]2!ped-up! |!ped! z2 [DE]C [DE]2!ped-up! | %117
!ped! z2 [DE]2 [DE]2!ped-up! |!ped! z2 [CE]=D [CE] z!ped-up! |!ped! z2 [CE]2 [CE]2!ped-up! | %120
!ped! z2 [CE]=D [CE] z!ped-up! |!ped! z2 [CE]2 [CE]2!ped-up! |!ped! z2 [D,F,]G, [F,A,]2!ped-up! | %123
!ped! z2 [F,A,]2 [F,A,]2!ped-up! |!ped! z2 [=D,A,]2 [D,A,]2!ped-up! |!ped! z F, G,A, B,D!ped-up! | %126
!ped! z2 [E,A,C]2 [E,A,C]2!ped-up! |!ped! z2 [E,A,C]2 [E,A,C]2!ped-up! | %128
!ped! z2 [E,A,C]2 [E,A,C]2!ped-up! |!ped! z2 [E,A,C]2 [E,A,C]2!ped-up! | %130
!ped! z2 [E,G,D]2 [G,DE]2!ped-up! |!ped! z2 [E,G,D]2 [G,DE]2!ped-up! | %132
!ped! z2 [E,G,D]2 [G,DE]2!ped-up! |!ped! z2 [E,G,D]2 [G,=B,E]2!ped-up! | %134
!ped! z2 [E,A,]2 [E,A,C]2!ped-up! |!ped! z2 [E,A,]2 [E,A,C]2!ped-up! | %136
!ped! z2 [E,A,]2 [E,A,C]2!ped-up! |!ped! z2 [E,A,]2 [E,A,C]2!ped-up! | %138
!ped! z2 [F,A,]2 [F,A,]2!ped-up! |!ped! z2 [F,A,]2 [F,A,]2!ped-up! | %140
!ped! z2 [=D,A,]2 [B,,A,]2!ped-up! | [E,,,E,,]2 [F,,,F,,]2 [^F,,,^F,,]2 |!ped! z2 [=B,F]4!ped-up! | %143
!ped! C,6!ped-up! |!ped! [G,,G,]6!ped-up! |!ped! C,6!ped-up! |!ped! [G,,G,]6!ped-up! || %147
[K:Eb]!ped! [C,,C,]6!ped-up! |!ped! [G,,,G,,]6!ped-up! |!ped! [C,,C,]6!ped-up! | %150
!ped! [G,,,G,,]6!ped-up! |"_ben marcato"!ped! [G,,G,]6!ped-up! |!ped! [E,,E,]4 [D,,D,]2!ped-up! | %153
!ped! [C,,C,]6-!ped-up! |!ped! [C,,C,]2 [C,,C,]2 [D,,D,]2!ped-up! | %155
!ped! [E,,E,]2 [C,,C,]2 [E,,E,]2!ped-up! |!ped! [G,,G,]4 [A,,A,]2!ped-up! |!ped! [G,,G,]6!ped-up! | %158
!ped! [F,,F,]6!ped-up! |!ped! [F,,F,]6!ped-up! |!ped! [D,,D,]4 [C,,C,]2!ped-up! | %161
!ped! [=B,,,-=B,,]6!ped-up! |!ped! [B,,,=B,,]2 [G,,,G,,]2 [=B,,,B,,]2!ped-up! | %163
!ped! [D,,D,]2 [=B,,,=B,,]2 [D,,D,]2!ped-up! |!ped! [F,,F,]2 [G,,G,]2 [A,,A,]2!ped-up! | %165
!ped! [^F,,^F,]6!ped-up! |!ped! [G,,G,]6!ped-up! | z2 [E,G,]2 [E,G,]2 |!ped! [G,,G,]6!ped-up! | %169
!ped! [F,,F,]6!ped-up! |!ped! [D,D]6!ped-up! |!ped! [B,,B,]6!ped-up! |!ped! [B,,B,]6!ped-up! | %173
!ped! [E,,E,]6!ped-up! | .[C,A,C]2 z2 z2 | .G,2 z2 z2 | .A,2 z2 z2 | .G,2 z2 z2 | .[A,,F,]2 z2 z2 | %179
 .[G,,E,]2 .[E,G,]2 z2 | .[A,,F,]2 .[F,A,]2 z2 | G,,G, F,E, D,C, |!mf! !tenuto![A,,,A,,]4 z2 | %183
 G,,6 | G,,,6 |!ped! z2 [G,C]2 [G,C]2!ped-up! |!ped! z2 [G,C]2 [G,C]2!ped-up! | %187
!ped! z2 [G,C]2 [G,C]2!ped-up! |!ped! z2 [G,C]2 [CE]2!ped-up! |!ped! [G,,G,]6!ped-up! | %190
!ped! [E,,E,]4 [D,,D,]2!ped-up! |!ped! [C,,C,]6!ped-up! |!ped! G,,2 [C,,C,]2 [D,,D,]2!ped-up! | %193
!ped! [E,,E,]2 [C,,C,]2 [E,,E,]2!ped-up! |!ped! [G,,G,]4 [A,,A,]2!ped-up! |!ped! [G,,G,]6!ped-up! | %196
!ped! [F,,F,]6!ped-up! |!ped! [F,,F,]6!ped-up! |!ped! [D,,D,]4 [C,,C,]2!ped-up! | %199
!ped! [=B,,,=B,,]6!ped-up! |!ped! G,,2 [G,,,G,,]2 [=B,,,=B,,]2!ped-up! | %201
!ped! [D,,D,]2 [=B,,,=B,,]2 [D,,D,]2!ped-up! |!ped! [F,,F,]2 [G,,G,]2 [A,,A,]2!ped-up! | %203
!ped! [^F,,^F,]6!ped-up! |!ped! [G,,G,]6!ped-up! |!ped! z2 [E,G,]2 [E,G,]2!ped-up! | %206
!ped! z2 [E,G,]2 [E,G,]2!ped-up! |!ped! z2 [A,C]2 [A,C]2!ped-up! |!ped! z2 [A,C]2 [A,B,]2!ped-up! | %209
!ped! z2 [B,D]2 [A,C]2!ped-up! |!ped! z2 [F,B,]2 [D,A,]2!ped-up! | %211
!ped! z2 [G,B,]2 [G,=B,]2!ped-up! | .[A,CE]2 z2 z2 | .G,2 z2 z2 | .A,2 z2 z2 | .G,2 .[G,,G,]2 z2 | %216
 .[A,,F,]2 z2 z2 | .[G,,E,]2 .[E,G,]2 z2 | .[A,,F,]2 .[F,A,]2 z2 | [G,,E,]4 .F,2 | !^![A,,A,]4 z2 | %221
 .[G,,G,]2 z2 z2 | .[G,,G,]2 z4 | .[C,,C,]2 z2 .[G,,,G,,]2 | .[C,,,C,,]2 z4 |] %225
V:5
 x6 | x6 | x6 | x6 | x6 | x6 | x6 | x6 | x6 | x6 | x6 | x6 | x6 | x6 | x6 | x6 | x6 | x6 | x6 | %19
 x6 | C,6 | G,,6 | x6 | x6 | x6 | B,,6 | x6 | x6 | x6 | x6 | x6 | x6 | x6 | x6 | x6 | x6 | x6 | %37
 x6 | x6 | x6 | x6 | x6 | x6 | x6 | x6 | x6 | x6 | x6 | x6 | G,,6 | D,6 | G,,6 | x6 | x6 | x6 | %55
 x6 | x6 | x6 | C,6 | G,,6 | F,6 | D,6 | B,,6 | B,,6 | E,,6 | x6 | x6 | x6 | x6 | x6 | x6 | x6 | %72
 x6 | x6 | x6 | x6 | x6 | x6 | x6 | x6 | x6 | x6 | x6 | x6 | x6 | x6 | x6 | x6 | x6 | [A,,,A,,]6 | %90
 x6 | x6 | x6 | x6 | [E,,,E,,]6 | [B,,,B,,]6 | [E,,E,]6 | [B,,,B,,]6 | [F,,F,]6 | [B,,,B,,]6 | %100
 [D,,D,]6 | [B,,,B,,]6 | [E,,E,]6 | [_D,,_D,]6 | [C,,C,]6 | [_C,,_C,]6 | x6 | x6 | x6 | x6 || %110
[K:Ab] A,6 | E,6 | A,6 | E,6 | B,6 | E,6 | B,6 | E,6 | A,6 | E,6 | A,6 | E,6 | D,6 | C,6 | B,,6 | %125
 [E,,E,]6 | [A,,,A,,]6 | [E,,E,]6 | [A,,,A,,]6 | [E,,E,]6 | [B,,,B,,]6 | [E,,E,]6 | [B,,,B,,]6 | %133
 [E,,E,]6 | [A,,,A,,]6 | [E,,E,]6 | [A,,,A,,]6 | [E,,E,]6 | [D,,D,]6 | [C,,C,]6 | [B,,,B,,]6 | x6 | %142
 [G,,,G,,]6 | x6 | x6 | x6 | x6 ||[K:Eb] x6 | x6 | x6 | x6 | x6 | x6 | x6 | x6 | x6 | x6 | x6 | %158
 x6 | x6 | x6 | x6 | x6 | x6 | x6 | x6 | x6 | [C,,C,]6 | x6 | x6 | x6 | x6 | x4 D,2 | x6 | x6 | %175
 x6 | x6 | x6 | x6 | x6 | x6 | x6 | x6 | x6 | x6 | [C,,C,]6 | [G,,,G,,]6 | [C,,C,]6 | [G,,,G,,]6 | %189
 x6 | x6 | x6 | x6 | x6 | x6 | x6 | x6 | x6 | x6 | x6 | x6 | x6 | x6 | x6 | x6 | C,6 | G,,6 | F,6 | %208
 D,6 | B,,6 | B,,6 | E,6 | x6 | x6 | x6 | x6 | x6 | x6 | x6 | x6 | x6 | x6 | x6 | x6 | x6 |] %225
V:6
 x6 | x6 | x6 | x6 | x6 | x6 | x6 | x6 | x6 | x6 | x6 | x6 | x6 | x6 | x6 | x6 | x6 | x6 | x6 | %19
 x6 |[K:treble] x6 | x6 | z2 [A,C]2 [A,C]2 | z2 [A,C]2 [A,B,]2 | z2 [B,D]2 [A,C]2 | z2 [A,C]2 z2 | %26
 z2 [G,B,]2 [G,=B,]2 | x6 | x6 | x6 | x6 | x6 | x6 | x6 | x6 | x6 | x6 | x6 | x6 | x6 | x6 | x6 | %42
 x6 | x6 | x6 | x6 | x6 | x6 | x6 | x6 | x6 | x6 | x6 | x6 | x6 | x6 | x6 | x6 | z2 [ce]2 [ce]2 | %59
 z2 [ce]2 [ce]2 | x6 | x6 | x6 | x6 | x6 | x6 | x6 | x6 | x6 | x6 | x6 | x6 | x6 | x6 | x6 | x6 | %76
 x6 | x6 | z2 [G,B,E]2 [G,B,E]2 | z2 [G,B,E]2 [G,B,E]2 | z2 [G,B,E]2 [G,B,E]2 | %81
 z2 [G,B,E]2 [G,B,E]2 | z2 [A,B,D]2 [A,B,D]2 | z2 [A,B,D]2 [A,B,D]2 | z2 [G,B,E]2 [G,B,E]2 | %85
 z2 [G,B,E]2 [G,B,E]2 | z2 [=E,B,C]2 [E,B,C]2 | z2 [=E,B,C]2 [E,B,C]2 | x6 | x6 | %90
 z2 [G,B,]2 [G,B,]2 | z2 [D,A,]2 [D,A,]2 | x6 | x6 | z2 [EG]2 [EG]2 | z2 [EG]2 [EG]2 | %96
 z2 [EG]2 [EG]2 | z2 [EG]2 [EG]2 | x6 | x6 | x6 | x6 | x6 | x6 | x6 | x6 | x6 | x6 | x6 | x6 || %110
[K:Ab] x6 | x6 | x6 | x6 | x6 | x6 | x6 | x6 | x6 | x6 | x6 | x6 | x6 | x6 | x6 | x6 | x6 | x6 | %128
 x6 | x6 | x6 | x6 | x6 | x6 | x6 | x6 | x6 | x6 | x6 | x6 | x6 | x6 | x6 | x6 | x6 | x6 | x6 || %147
[K:Eb] x6 | x6 | x6 | x6 | x6 | x6 | x6 | x6 | x6 | x6 | x6 | x6 | x6 | x6 | x6 | x6 | x6 | x6 | %165
 x2 [CE]2 [D^F]2 | [DG]2 [=B,D]2 [B,D]2 | x6 | G2 F2 E2 | x6 | x6 | x6 | x6 | x6 | x6 | x6 | x6 | %177
 x6 | x6 | x6 | x6 | x6 | x6 | x6 | x6 | E6- | E6- | E6 | x6 | z2 [G,CE]2 [G,CE]2 | x6 | x6 | x6 | %193
 x6 | x6 | x6 | x6 | x6 | x6 | x6 | x6 | x6 | x6 | x6 | x6 | x6 | x6 | x6 | x6 | x6 | x6 | x6 | %212
 x6 | x6 | x6 | x6 | x6 | x6 | x6 | x6 | x6 | x6 | x6 | x6 | x6 |] %225

